X: 1897
T: Usandırdı Felek Candan
C: Ahmet Mükerrem Akıncı
O: Turkey
F: http://compmusic.upf.edu/node/140
N: hicazkar--sarki--curcuna--usandirdi_felek--ahmet_mukerrem_akinci
N: makam= hicazkar
N: form= sarki
N: usul= curcuna = 10/8
M: 10/8
L: 1/16
K: C _1/4B _7/8e _7/8A ^f
Q: 1/4=150
%%MIDI tuningsystem comma53
z4 f2g4g4=a4z2  | z4 c'2_7/8b2 =a2g3fe4z2  | \
w:  U san dır dı   |  fe lek  *  can *  dan   | 
z4 f2g4b2 a2g4f2  | 
w:  de mâ dem  *  in  | 
(3e2d2e2 f2g3fe3dc4z2  | z4 g2f2 e2ed c2g4z2  | \
w:  *  *  *  fi â *  lin *  den    |  SAZ  | 
z4 f2g4g4=a4z2  | 
w:  U san dır dı   | 
z4 c'2_7/8b2 =a2g3fe4z2  | z4 f2g4b2 a2g4f2  | \
w:  fe lek  *  can *  dan   |  de mâ dem  *  in  | 
(3e2d2e2 f2g3fe3dc4z2  | 
w:  *  *  *  fi â *  lin *  den    | 
z4 g2f2 e2ed c2=f4z2  | z4 =e2=f4f4f2 _7/8edc2  | \
w:  SAZ  |  Ha ber dâr  et   | 
g4 g2g4g3fe4z2  | 
w:  *  sa bâ  yâ *  rin   | 
z4 f2g4b2 a2g4f2  | (3e2d2e2 f2g3fe3dc4z2  | \
w:  sen_ ol sun  *  bâ  |  *  *  *  ri  hâ *  lin *  den    | 
z4 g2f2 e2ed c2=f4z2  | 
w:  SAZ  | 
z4 =e2=f4f4f2 _7/8edc2  | g4 g2a4a3gf4z2  | \
w:  Ha ber dâr  et   |  *  sa bâ  yâ *  rin   | 
z4 f2g4g2 f2g4d2  | 
w:  sen_ ol sun  *  bâ  | 
B4 c2d3cB3AG4z2  | G4 c2c4B2 d2c4z2  | \
w:  *  ri  hâ *  lin *  den    |  SAZ  | 
z4 B2c4c4c4B2  | 
w:  Ni ce  dem  var   | 
(3B2=A2B2 c2d4(3e2d2c2B6  | z4 G2G4A4B4A2  | \
w:  *  *  *  ki  meh cû *  *  run   |  o  dil dâ rın   | 
B4 c2d3BA2 G2G4z2  | 
w:  *  vi sâ *  lin *  den    | 
G4 c2c4B2 d2c4z2  | z4 B2c2 d2d4d4c2  | \
w:  SAZ  |  Ni ce  *  dem  var   | 
g4 =f2(3_1/4e2d2e2f2 edc4z2  | 
w:  *  ki  meh *  *  cû *  *  run   | 
z4 c2d4e2 f2g4f2  | (3e2d2e2 f2g3fe3dc4z2  | \
w:  o  dil dâ *  rın   |  *  *  *  vi sâ *  lin *  den    | 
z4 g2f2 e2ed c2=f4z2  | 
w:  SAZ  | 
z4 =e2=f4f4f2 _7/8edc2  | g4 g2g4g3fe4z2  | \
w:  Ha ber dâr  et   |  *  sa bâ  yâ *  rin   | 
z4 f2g4b2 a2g4f2  | 
w:  sen_ ol sun  *  bâ  | 
(3e2d2e2 f2g3fe3dc4z2  | z4 g2f2 e2ed c2=f4z2  | \
w:  *  *  *  ri  hâ *  lin *  den    |  SAZ  | 
z4 =e2=f4f4f2 _7/8edc2  | 
w:  Ha ber dâr  et   | 
g4 g2a4a3gf4z2  | z4 f2g4g2 f2g4d2  | \
w:  *  sa bâ  yâ *  rin   |  sen_ ol sun  *  bâ  | 
B4 c2d3cB3AG4z2  | 
w:  *  ri  hâ *  lin *  den    | 
|


